SVG_Azure_Grouped/Application/Stream Analytics job.svg

<?xml version="1.0" encoding="UTF-8" standalone="no"?>
<!-- Generated by Microsoft Visio, SVG Export Stream Analytics job.svg Page-1 -->

<svg
   xmlns:dc="http://purl.org/dc/elements/1.1/"
   xmlns:cc="http://creativecommons.org/ns#"
   xmlns:rdf="http://www.w3.org/1999/02/22-rdf-syntax-ns#"
   xmlns:svg="http://www.w3.org/2000/svg"
   xmlns="http://www.w3.org/2000/svg"
   xmlns:sodipodi="http://sodipodi.sourceforge.net/DTD/sodipodi-0.dtd"
   xmlns:inkscape="http://www.inkscape.org/namespaces/inkscape"
   width="0.78725517in"
   height="0.62999773in"
   viewBox="0 0 56.68237 45.36"
   xml:space="preserve"
   class="st4"
   version="1.1"
   id="svg41"
   sodipodi:docname="Stream Analytics job.svg"
   style="font-size:12px;overflow:visible;color-interpolation-filters:sRGB;fill:none;fill-rule:evenodd;stroke-linecap:square;stroke-miterlimit:3"
   inkscape:version="0.92.5 (2060ec1f9f, 2020-04-08)"><metadata
   id="metadata45"><rdf:RDF><cc:Work
       rdf:about=""><dc:format>image/svg+xml</dc:format><dc:type
         rdf:resource="http://purl.org/dc/dcmitype/StillImage" /></cc:Work></rdf:RDF></metadata><sodipodi:namedview
   pagecolor="#ffffff"
   bordercolor="#666666"
   borderopacity="1"
   objecttolerance="10"
   gridtolerance="10"
   guidetolerance="10"
   inkscape:pageopacity="0"
   inkscape:pageshadow="2"
   inkscape:window-width="640"
   inkscape:window-height="480"
   id="namedview43"
   showgrid="false"
   inkscape:zoom="2.1095237"
   inkscape:cx="37.784445"
   inkscape:cy="10.588695"
   inkscape:window-x="0"
   inkscape:window-y="0"
   inkscape:window-maximized="0"
   inkscape:current-layer="svg41" />
	<style
   type="text/css"
   id="style2">
	<![CDATA[
		.st1 {fill:url(#grad0-5);stroke:none;stroke-linecap:butt;stroke-width:0.75}
		.st2 {fill:#50e6ff;stroke:none;stroke-linecap:butt;stroke-width:0.75}
		.st3 {fill:#32bedd;stroke:none;stroke-linecap:butt;stroke-width:0.75}
		.st4 {fill:none;fill-rule:evenodd;font-size:12px;overflow:visible;stroke-linecap:square;stroke-miterlimit:3}
	]]>
	</style>

	<defs
   id="Patterns_And_Gradients">
		<linearGradient
   id="grad0-5"
   x1="0"
   y1="37.807718"
   x2="44.486591"
   y2="37.807718"
   gradientTransform="scale(0.98074496,1.0196331)"
   gradientUnits="userSpaceOnUse">
			<stop
   offset="0"
   stop-color="#949494"
   stop-opacity="1"
   id="stop4" />
			<stop
   offset="0.33"
   stop-color="#9b9b9b"
   stop-opacity="1"
   id="stop6" />
			<stop
   offset="0.82"
   stop-color="#aeafb0"
   stop-opacity="1"
   id="stop8" />
			<stop
   offset="1"
   stop-color="#b6b8b9"
   stop-opacity="1"
   id="stop10" />
		</linearGradient>
	</defs>
	<g
   id="g39"
   transform="translate(-5.6774379,-4.5343)">
		<title
   id="title14">Page-1</title>
		<g
   id="group13687-1"
   transform="translate(5.66929,-34.0157)">
			<title
   id="title16">Stream Analytics job.13687</title>
			<g
   id="shape13688-2"
   transform="translate(13.0606)">
				<title
   id="title18">Sheet.13688</title>
				<path
   d="m 43.63,63.31 v -5.28 l -0.31,-0.27 -5.8,-1.83 -1.48,-3.51 2.87,-5.55 0.31,-0.62 -1.89,-1.8 -2.2,-2.03 -0.76,0.35 -5.67,2.69 -3.81,-1.01 -2.46,-5.9 h -5.64 l -0.28,0.27 -1.96,5.4 L 10.59,45.6 4.03,42.65 0,46.34 0.38,47.05 3.4,52.42 a 18.9021,17.705 0 0 1 10.08,-2.54 19.7212,18.4722 0 0 1 11.25,3.37 10.4592,9.79677 0 0 1 1.13,0.76 10.2386,9.59021 0 0 1 2.93,3.99 9.45104,8.8525 0 0 1 0.67,3.27 10.1756,9.5312 0 0 1 -10.24,9.53 10.3016,9.64923 0 0 1 -5.89,-1.74 19.8787,18.6198 0 0 1 -12.61,5.17 l -0.59,1.15 4.03,3.8 0.82,-0.2 5.67,-2.95 3.9,1.5 2.49,6.38 h 5.67 l 0.22,-0.74 2.02,-5.64 3.84,-1.5 6.65,2.95 4,-3.72 -0.38,-0.71 -2.93,-5.28 1.2,-3.69 z"
   class="st1"
   id="path20"
   inkscape:connector-curvature="0"
   style="fill:url(#grad0-5);stroke:none;stroke-width:0.75;stroke-linecap:butt" />
			</g>
			<g
   id="shape13689-6"
   transform="translate(4.294,-17.764)">
				<title
   id="title23">Sheet.13689</title>
				<path
   d="m 8.29,83.91 a 11.3413,10.623 0 0 1 -8.06,-3.1 1.44916,1.35738 0 1 1 2.05,-1.77 8.34842,7.81971 -180 0 0 6.01,2.15 8.25391,7.73119 -180 0 0 5.93,-2.15 11.1837,10.4755 0 0 1 8.03,-2.95 11.4673,10.741 0 0 1 8.1,2.95 1.44916,1.35738 0 1 1 -2.05,1.91 8.47444,7.93775 -180 0 0 -5.96,-2.3 8.22241,7.70168 -180 0 0 -5.92,2.3 11.3728,10.6525 0 0 1 -8.13,2.96 z"
   class="st2"
   id="path25"
   inkscape:connector-curvature="0"
   style="fill:#50e6ff;stroke:none;stroke-width:0.75;stroke-linecap:butt" />
			</g>
			<g
   id="shape13690-8"
   transform="translate(8.6186,-23.1641)">
				<title
   id="title28">Sheet.13690</title>
				<path
   d="M 3.97,83.91 A 5.63912,5.28199 0 0 1 0,82.37 a 1.4495059,1.357704 0 0 1 2.05,-1.92 2.64629,2.4787 -180 0 0 1.92,0.74 3.40238,3.1869 -180 0 0 1.89,-0.74 17.2009,16.1116 0 0 1 24.16,0 1.44916,1.35738 0 0 1 -2.04,1.92 14.3341,13.4263 -180 0 0 -20.2,0 6.11168,5.72462 0 0 1 -3.81,1.54 z"
   class="st2"
   id="path30"
   inkscape:connector-curvature="0"
   style="fill:#50e6ff;stroke:none;stroke-width:0.75;stroke-linecap:butt" />
			</g>
			<g
   id="shape13691-10"
   transform="translate(0,-12.364)">
				<title
   id="title33">Sheet.13691</title>
				<path
   d="m 12.59,83.91 a 17.0434,15.964 0 0 1 -12.19,-4.7 1.48066,1.38689 0 0 1 0,-1.88 1.48066,1.38689 0 0 1 2.08,0 14.0821,13.1902 -180 0 0 10.11,3.89 14.1766,13.2788 -180 0 0 10.08,-3.92 6.11168,5.72462 0 0 1 3.81,-1.45 5.76514,5.40003 0 0 1 3.94,1.53 1.44916,1.35738 0 0 1 0,1.92 1.48066,1.38689 0 0 1 -2.08,0 2.61479,2.44919 -180 0 0 -1.86,-0.74 3.15035,2.95083 -180 0 0 -1.89,0.77 17.0434,15.964 0 0 1 -12,4.58 z"
   class="st3"
   id="path35"
   inkscape:connector-curvature="0"
   style="fill:#32bedd;stroke:none;stroke-width:0.75;stroke-linecap:butt" />
			</g>
		</g>
	</g>
</svg>

<?xml version="1.0" encoding="UTF-8" standalone="no"?>
<!DOCTYPE svg PUBLIC "-//W3C//DTD SVG 1.1//EN" "http://www.w3.org/Graphics/SVG/1.1/DTD/svg11.dtd">
<!-- Generated by Microsoft Visio, SVG Export Stream Analytics job.svg Page-1 -->
<svg xmlns="http://www.w3.org/2000/svg" xmlns:xlink="http://www.w3.org/1999/xlink" xmlns:ev="http://www.w3.org/2001/xml-events"
		width="0.944882in" height="1.16535in" viewBox="0 0 68.0315 83.9055" xml:space="preserve" color-interpolation-filters="sRGB"
		class="st4">
	<style type="text/css">
	<![CDATA[
		.st1 {fill:url(#grad0-5);stroke:none;stroke-linecap:butt;stroke-width:0.75}
		.st2 {fill:#50e6ff;stroke:none;stroke-linecap:butt;stroke-width:0.75}
		.st3 {fill:#32bedd;stroke:none;stroke-linecap:butt;stroke-width:0.75}
		.st4 {fill:none;fill-rule:evenodd;font-size:12px;overflow:visible;stroke-linecap:square;stroke-miterlimit:3}
	]]>
	</style>

	<defs id="Patterns_And_Gradients">
		<linearGradient id="grad0-5" x1="0" y1="0" x2="1" y2="0" gradientTransform="rotate(-90 0.5 0.5)">
			<stop offset="0" stop-color="#949494" stop-opacity="1"/>
			<stop offset="0.33" stop-color="#9b9b9b" stop-opacity="1"/>
			<stop offset="0.82" stop-color="#aeafb0" stop-opacity="1"/>
			<stop offset="1" stop-color="#b6b8b9" stop-opacity="1"/>
		</linearGradient>
	</defs>
	<g>
		<title>Page-1</title>
		<g id="group13340-1" transform="translate(5.66929,-34.0157)">
			<title>Stream Analytics job.13340</title>
			<g id="shape13341-2" transform="translate(13.0606,0)">
				<title>Sheet.13341</title>
				<path d="M43.63 63.31 L43.63 58.03 L43.32 57.76 L37.52 55.93 L36.04 52.42 L38.91 46.87 L39.22 46.25 L37.33 44.45
							 L35.13 42.42 L34.37 42.77 L28.7 45.46 L24.89 44.45 L22.43 38.55 L16.79 38.55 L16.51 38.82 L14.55 44.22
							 L10.59 45.6 L4.03 42.65 L0 46.34 L0.38 47.05 L3.4 52.42 A18.9021 17.705 0 0 1 13.48 49.88 A19.7212 18.4722
							 0 0 1 24.73 53.25 A10.4592 9.79677 0 0 1 25.86 54.01 A10.2386 9.59021 0 0 1 28.79 58 A9.45104 8.8525
							 0 0 1 29.46 61.27 A10.1756 9.5312 0 0 1 19.22 70.8 A10.3016 9.64923 0 0 1 13.33 69.06 A19.8787 18.6198
							 0 0 1 0.72 74.23 L0.13 75.38 L4.16 79.18 L4.98 78.98 L10.65 76.03 L14.55 77.53 L17.04 83.91 L22.71 83.91
							 L22.93 83.17 L24.95 77.53 L28.79 76.03 L35.44 78.98 L39.44 75.26 L39.06 74.55 L36.13 69.27 L37.33 65.58
							 L43.63 63.31 Z" class="st1"/>
			</g>
			<g id="shape13342-6" transform="translate(4.294,-17.764)">
				<title>Sheet.13342</title>
				<path d="M8.29 83.91 A11.3413 10.623 0 0 1 0.23 80.81 A1.44916 1.35738 0 1 1 2.28 79.04 A8.34842 7.81971 -180 0 0
							 8.29 81.19 A8.25391 7.73119 -180 0 0 14.22 79.04 A11.1837 10.4755 0 0 1 22.25 76.09 A11.4673 10.741
							 0 0 1 30.35 79.04 A1.44916 1.35738 0 1 1 28.3 80.95 A8.47444 7.93775 -180 0 0 22.34 78.65 A8.22241 7.70168
							 -180 0 0 16.42 80.95 A11.3728 10.6525 0 0 1 8.29 83.91 Z" class="st2"/>
			</g>
			<g id="shape13343-8" transform="translate(8.6186,-23.1641)">
				<title>Sheet.13343</title>
				<path d="M3.97 83.91 A5.63912 5.28199 0 0 1 0 82.37 A1.44916 1.35738 0 0 1 2.05 80.45 A2.64629 2.4787 -180 0 0 3.97
							 81.19 A3.40238 3.1869 -180 0 0 5.86 80.45 A17.2009 16.1116 0 0 1 30.02 80.45 A1.44916 1.35738 0 0 1
							 27.98 82.37 A14.3341 13.4263 -180 0 0 7.78 82.37 A6.11168 5.72462 0 0 1 3.97 83.91 Z" class="st2"/>
			</g>
			<g id="shape13344-10" transform="translate(0,-12.364)">
				<title>Sheet.13344</title>
				<path d="M12.59 83.91 A17.0434 15.964 0 0 1 0.4 79.21 A1.48066 1.38689 0 0 1 0.4 77.33 A1.48066 1.38689 0 0 1 2.48
							 77.33 A14.0821 13.1902 -180 0 0 12.59 81.22 A14.1766 13.2788 -180 0 0 22.67 77.3 A6.11168 5.72462 0
							 0 1 26.48 75.85 A5.76514 5.40003 0 0 1 30.42 77.38 A1.44916 1.35738 0 0 1 30.42 79.3 A1.48066 1.38689
							 0 0 1 28.34 79.3 A2.61479 2.44919 -180 0 0 26.48 78.56 A3.15035 2.95083 -180 0 0 24.59 79.33 A17.0434
							 15.964 0 0 1 12.59 83.91 Z" class="st3"/>
			</g>
		</g>
	</g>
</svg>
